!!!ONB: MCCC : ILB0175_03 : Extracted Monophonic Melody
!!!COM: Beethoven, Ludwig van
!!!OPR: Piano Sonata No.14
!!!OMV: 3
!!!SCT: Op.27 No.2
!!!ODT: 1802///
**kern
*thru
*>I
*staff1
*Ipiano
*clefG2
*k[f#c#g#d#]
*c#:
*M4/4
*MM154
16GG#
16C#
16E
16G#
16C#
16E
16G#
16c#
16E
16G#
16c#
16e
16G#
16c#
16e
=2
*>A
16g#
16c#
16e
16g#
16cc#
16e
16g#
16cc#
16ee
16g#
16cc#
16ee
8gg#
8gg#
=3
16r
16GG#
16BB#
16D#
16G#
16BB#
16D#
16G#
16B#
16D#
16G#
16B#
16d#
16G#
16B#
16d#
=4
16g#
16B#
16d#
16g#
16b#
16d#
16g#
16b#
16dd#
16g#
16b#
16dd#
8gg#
8gg#
=5
16r
16C#
16E#
16G#
16c#
16E#
16G#
16c#
16e#
16G#
16c#
16e#
16g#
16c#
16e#
16g#
=6
16cc#
16e#
16g#
16cc#
16ee#
16g#
16cc#
16ee#
16gg#
16cc#
16ee#
16gg#
8ccc#
8ccc#
=7
16r
16C#
16F#
16A
16c#
16c#
16f#
16a
16cc#
16cc#
16ff#
16aa
8ccc#
8ccc#
=8
16r
16C#
16E
16F##
16c#
16c#
16e
16f##
16cc#
16cc#
16ee
16ff##
8ccc#
8ccc#
=9
8bb#
16g#
16gg#
16g#
16gg#
16a#
16gg#
16b#
16gg#
16cc#
16gg#
16dd#
16gg#
16b#
16gg#
=10
16dd#
16gg#
16cc#
16gg#
16ff#
16gg#
16ee
16gg#
16dd#
16gg#
16cc#
16gg#
16b#
16gg#
16a
16ff##
=11
16g#
16gg#
16g#
16gg#
16g#
16gg#
16a#
16gg#
16b#
16gg#
16cc#
16gg#
16dd#
16gg#
16b#
16gg#
=12
16dd#
16gg#
16cc#
16gg#
16ff#
16gg#
16ee
16gg#
16dd#
16gg#
16cc#
16gg#
16b#
16gg#
16a
16ff##
=13
16g#
16gg#
16a
16ff##
16g#
16gg#
16a
16ff##
16g#
16gg#
16a
16ff##
16g#
16gg#
16a
16ff##
=14
4gg#
2.G#
=15
16r
16GG#
16C#
16E
16G#
16C#
16E
16G#
16c#
16E
16G#
16c#
16e
16G#
16c#
16e
=16
16g#
16c#
16e
16g#
16cc#
16e
16g#
16cc#
16ee
16ee
16gg#
16ccc#
8eee
8eee
=17
16r
16E
16F##
16c#
16e
16F##
16c#
16e
16f##
16c#
16e
16f##
16cc#
16e
16f##
16cc#
=18
16ee
16f##
16cc#
16ee
16ff##
16cc#
16ee
16ff##
16ccc#
16ee
16ff##
16ccc#
8eee
8eee
=19
16r
16D#
16A#
16c#
16d#
16A#
16c#
16d#
16a#
16c#
16d#
16a#
16cc#
16d#
16a#
16cc#
=20
16dd#
16a#
16cc#
16dd#
16aa#
16cc#
16dd#
16aa#
16ccc#
16aa#
16dd#
16cc#
16aa#
16dd#
16cc#
16a#
=21
4b
2dd#
8.b
16g#
=22
4g#
[4f##
8f##]
8f##
8.dd#
16f##
=23
4a#
[4g#
8g#]
8g#
8.dd#
16g#
=24
4b
[4a#
8a#]
8a#
8.dd#
16a#
=25
8b
4ddd#
4ddd#
8ddd#
8bb
8gg#
=26
8gg#
4ff##
4ff##
8ff##
8ddd#
8ff##
=27
8aa#
4gg#
4gg#
8gg#
8ddd#
8gg#
=28
8bb
4aa#
4aa#
8aa#
8ddd#
8aa#
=29
2bb#
2ccc#
=30
4aa#
2.bb
=31
2gg#
2aa
=32
4ff##
2.gg#
=33
2aa[
16aa]
16ee
16ff#
16gg#
16aa
16bb
16ccc#
16bb
=34
16aa
16ee
16ff#
16gg#
16aa
16bb
16ccc#
16bb
16aa
16ee
16ff#
16gg#
16aa
16bb
16ccc#
16bb
=35
16aa
16ee
16ff#
16gg#
16aa
16bb
16ccc#
16ddd
16eee
16ddd#
16eee
16ddd#
16eee
16ccc#
16bb
16aa
=36
2gg#
2aa#
=37
4gg#
4a[
16a]
16e
16f#
16g#
16a
16b
16cc#
16b
=38
16a
16e
16f#
16g#
16a
16b
16cc#
16b
16a
16e
16f#
16g#
16a
16b
16cc#
16b
=39
16a
16e
16f#
16g#
16a
16b
16cc#
16b
16a
16e
16f#
16g#
16a
16b
16cc#
16b
=40
16a
16e
16f#
16g#
16a
16b
16cc#
16dd
16ee
16ff#
16gg#
16aa
16bb
16ccc#
16ddd
16ddd#
=41
2eee
2gg#
=42
2bb
2f##
=43
8g#
8b
8b
8b
8b
8b
8a#
8g#
=44
8f##
8dd#
8dd#
8dd#
8dd#
8dd#
8dd#
8dd#
=45
8dd#
8b
8b
8b
8b
8b
8a#
8g#
=46
8f##
8dd#
8dd#
8dd#
8dd#
8dd#
8dd#
8dd#
=47
8dd#
8dd#
8dd#
8b
8r
8ee
8ee
8cc#
=48
8r
8dd#
8dd#
8b
8r
8dd#
8dd#
8a#
=49
8b
8bb
8bb
8bb
8bb
8bb
8aa#
8gg#
=50
8ff##
8eee
8eee
8eee
8eee
8eee
8ddd#
8ccc#
=51
8bb
8bb
8bb
8bb
8bb
8bb
8aa#
8gg#
=52
8ff##
8eee
8eee
8eee
8eee
8eee
8ddd#
8ccc#
=53
8bb
8bb
8bb
8ddd#
8r
8ccc#
8ccc#
8eee
=54
8r
8bb
8bb
8ddd#
8r
8aa#
8aa#
8ddd#
=55
8r
8bb
8bb
8ddd#
8r
8aa
8aa
8ccc#
=56
8r
8gg#
8gg#
8bb
8r
8ff##
8ff##
8aa#
=57
4gg#
4r
4r
8.b
16g#
=58
4f##
4dd#
4dd#
4dd#
=59
2.dd#
8.bb
16gg#
=60
4ff##
4ddd#
4ddd#
4ddd#
=61
2ddd#
2ddd#
=62
2ddd#
2ddd#
=63
16B
16g#
16d#
16g#
16B
16g#
16d#
16g#
16B
16g#
16d#
16g#
16B
16g#
16d#
16g#
=64
16B#
16f#
16d#
16f#
16B#
16f#
16d#
16f#
16B#
16f#
16d#
16f#
16B#
16f#
16d#
16f#
=65
*>A1
16e
16GG#
16C#
16E
16G#
16C#
16E
16G#
16c#
16E
16G#
16c#
16e
16G#
16c#
16e
=66
*>A
16g#
16c#
16e
16g#
16cc#
16e
16g#
16cc#
16ee
16g#
16cc#
16ee
8gg#
8gg#
=67
16r
16GG#
16BB#
16D#
16G#
16BB#
16D#
16G#
16B#
16D#
16G#
16B#
16d#
16G#
16B#
16d#
=68
16g#
16B#
16d#
16g#
16b#
16d#
16g#
16b#
16dd#
16g#
16b#
16dd#
8gg#
8gg#
=69
16r
16C#
16E#
16G#
16c#
16E#
16G#
16c#
16e#
16G#
16c#
16e#
16g#
16c#
16e#
16g#
=70
16cc#
16e#
16g#
16cc#
16ee#
16g#
16cc#
16ee#
16gg#
16cc#
16ee#
16gg#
8ccc#
8ccc#
=71
16r
16C#
16F#
16A
16c#
16c#
16f#
16a
16cc#
16cc#
16ff#
16aa
8ccc#
8ccc#
=72
16r
16C#
16E
16F##
16c#
16c#
16e
16f##
16cc#
16cc#
16ee
16ff##
8ccc#
8ccc#
=73
8bb#
16g#
16gg#
16g#
16gg#
16a#
16gg#
16b#
16gg#
16cc#
16gg#
16dd#
16gg#
16b#
16gg#
=74
16dd#
16gg#
16cc#
16gg#
16ff#
16gg#
16ee
16gg#
16dd#
16gg#
16cc#
16gg#
16b#
16gg#
16a
16ff##
=75
16g#
16gg#
16g#
16gg#
16g#
16gg#
16a#
16gg#
16b#
16gg#
16cc#
16gg#
16dd#
16gg#
16b#
16gg#
=76
16dd#
16gg#
16cc#
16gg#
16ff#
16gg#
16ee
16gg#
16dd#
16gg#
16cc#
16gg#
16b#
16gg#
16a
16ff##
=77
16g#
16gg#
16a
16ff##
16g#
16gg#
16a
16ff##
16g#
16gg#
16a
16ff##
16g#
16gg#
16a
16ff##
=78
4gg#
2.G#
=79
16r
16GG#
16C#
16E
16G#
16C#
16E
16G#
16c#
16E
16G#
16c#
16e
16G#
16c#
16e
=80
16g#
16c#
16e
16g#
16cc#
16e
16g#
16cc#
16ee
16ee
16gg#
16ccc#
8eee
8eee
=81
16r
16E
16F##
16c#
16e
16F##
16c#
16e
16f##
16c#
16e
16f##
16cc#
16e
16f##
16cc#
=82
16ee
16f##
16cc#
16ee
16ff##
16cc#
16ee
16ff##
16ccc#
16ee
16ff##
16ccc#
8eee
8eee
=83
16r
16D#
16A#
16c#
16d#
16A#
16c#
16d#
16a#
16c#
16d#
16a#
16cc#
16d#
16a#
16cc#
=84
16dd#
16a#
16cc#
16dd#
16aa#
16cc#
16dd#
16aa#
16ccc#
16aa#
16dd#
16cc#
16aa#
16dd#
16cc#
16a#
=85
4b
2dd#
8.b
16g#
=86
4g#
[4f##
8f##]
8f##
8.dd#
16f##
=87
4a#
[4g#
8g#]
8g#
8.dd#
16g#
=88
4b
[4a#
8a#]
8a#
8.dd#
16a#
=89
8b
4ddd#
4ddd#
8ddd#
8bb
8gg#
=90
8gg#
4ff##
4ff##
8ff##
8ddd#
8ff##
=91
8aa#
4gg#
4gg#
8gg#
8ddd#
8gg#
=92
8bb
4aa#
4aa#
8aa#
8ddd#
8aa#
=93
2bb#
2ccc#
=94
4aa#
2.bb
=95
2gg#
2aa
=96
4ff##
2.gg#
=97
2aa[
16aa]
16ee
16ff#
16gg#
16aa
16bb
16ccc#
16bb
=98
16aa
16ee
16ff#
16gg#
16aa
16bb
16ccc#
16bb
16aa
16ee
16ff#
16gg#
16aa
16bb
16ccc#
16bb
=99
16aa
16ee
16ff#
16gg#
16aa
16bb
16ccc#
16ddd
16eee
16ddd#
16eee
16ddd#
16eee
16ccc#
16bb
16aa
=100
2gg#
2aa#
=101
4gg#
4a[
16a]
16e
16f#
16g#
16a
16b
16cc#
16b
=102
16a
16e
16f#
16g#
16a
16b
16cc#
16b
16a
16e
16f#
16g#
16a
16b
16cc#
16b
=103
16a
16e
16f#
16g#
16a
16b
16cc#
16b
16a
16e
16f#
16g#
16a
16b
16cc#
16b
=104
16a
16e
16f#
16g#
16a
16b
16cc#
16dd
16ee
16ff#
16gg#
16aa
16bb
16ccc#
16ddd
16ddd#
=105
2eee
2gg#
=106
2bb
2f##
=107
8g#
8b
8b
8b
8b
8b
8a#
8g#
=108
8f##
8dd#
8dd#
8dd#
8dd#
8dd#
8dd#
8dd#
=109
8dd#
8b
8b
8b
8b
8b
8a#
8g#
=110
8f##
8dd#
8dd#
8dd#
8dd#
8dd#
8dd#
8dd#
=111
8dd#
8dd#
8dd#
8b
8r
8ee
8ee
8cc#
=112
8r
8dd#
8dd#
8b
8r
8dd#
8dd#
8a#
=113
8b
8bb
8bb
8bb
8bb
8bb
8aa#
8gg#
=114
8ff##
8eee
8eee
8eee
8eee
8eee
8ddd#
8ccc#
=115
8bb
8bb
8bb
8bb
8bb
8bb
8aa#
8gg#
=116
8ff##
8eee
8eee
8eee
8eee
8eee
8ddd#
8ccc#
=117
8bb
8bb
8bb
8ddd#
8r
8ccc#
8ccc#
8eee
=118
8r
8bb
8bb
8ddd#
8r
8aa#
8aa#
8ddd#
=119
8r
8bb
8bb
8ddd#
8r
8aa
8aa
8ccc#
=120
8r
8gg#
8gg#
8bb
8r
8ff##
8ff##
8aa#
=121
4gg#
4r
4r
8.b
16g#
=122
4f##
4dd#
4dd#
4dd#
=123
2.dd#
8.bb
16gg#
=124
4ff##
4ddd#
4ddd#
4ddd#
=125
2ddd#
2ddd#
=126
2ddd#
2ddd#
=127
16B
16g#
16d#
16g#
16B
16g#
16d#
16g#
16B
16g#
16d#
16g#
16B
16g#
16d#
16g#
=128
16B#
16f#
16d#
16f#
16B#
16f#
16d#
16f#
16B#
16f#
16d#
16f#
16B#
16f#
16d#
16f#
=129
*>B
16cc#
16e#
16g#
16cc#
16ee#
16g#
16cc#
16ee#
16gg#
16cc#
16ee#
16gg#
8ccc#
8ccc#
=130
16r
16C#
16E#
16G#
16c#
16E#
16G#
16c#
16e#
16G#
16c#
16e#
16g#
16c#
16e#
16g#
=131
16cc#
16e#
16g#
16cc#
16ee#
16g#
16cc#
16ee#
16gg#
16cc#
16ee#
16gg#
8ccc#
8ccc#
=132
16r
16C#
16F#
16A
16c#
16c#
16f#
16a
16cc#
16cc#
16ff#
16aa
8ccc#
8ccc#
=133
16r
16C#
16G#
16B
16c#
16c#
16g#
16b
16cc#
16cc#
16gg#
16bb
8ccc#
8ccc#
=134
4ccc#
2cc#
8.a
16f#
=135
4f#
[4e#
8e#]
8e#
8.cc#
16e#
=136
4g#
[4f#
8f#]
8f#
8.cc#
16f#
=137
4a
[4g#
8g#]
8g#
8.cc#
16g#
=138
16a
16cc#
16a
16cc#
16f#
16cc#
16a
16cc#
16f#
16cc#
16a
16cc#
16f#
16cc#
16a
16cc#
=139
16g#
16cc#
16b
16cc#
16g#
16cc#
16b
16cc#
16g#
16cc#
16b
16cc#
16g#
16cc#
16b
16cc#
=140
16f#
16cc#
16a
16cc#
16f#
16cc#
16a
16cc#
16f#
16cc#
16a
16cc#
16f#
16cc#
16a
16cc#
=141
16f#
16dd
16a
16dd
16f#
16dd
16a
16dd
16a
16dd
16cc
16dd
16a
16dd
16cc
16dd
=142
16g
16dd
16b
16dd
16g
16dd
16b
16dd
16g
16dd
16b
16dd
16g
16dd
16b
16dd
=143
16a
16dd
16cc
16dd
16a
16dd
16cc
16dd
16a
16dd
16cc
16dd
16a
16dd
16cc
16dd
=144
16g
16dd
16b
16dd
16g
16dd
16b
16dd
16g
16dd
16b
16dd
16g
16dd
16b
16dd
=145
16g#
16dd
16b
16dd
16g#
16cc#
16b
16cc#
16g#
16cc#
16b
16cc#
16g#
16cc#
16b
16cc#
=146
16f#
16cc#
16a
16cc#
16f#
16cc#
16a
16cc#
16f#
16ff#
16a
16ff#
16f#
16ff#
16a
16ff#
=147
16f#
16ff#
16dd#
16ff#
16f#
16ff#
16dd#
16ff#
16f#
16ff#
16dd#
16ff#
16f#
16ff#
16dd#
16ff#
=148
16e
16ee
16cc#
16ee
16e
16ee
16cc#
16ee
16e
16ee
16cc#
16ee
16e
16ee
16cc#
16ee
=149
16d#
16dd#
16cc#
16dd#
16d#
16dd#
16cc#
16dd#
16d#
16dd#
16cc#
16dd#
16d#
16dd#
16cc#
16dd#
=150
4dd#
2g#
8a
8g#
=151
4f#
8g#
8f#
4e
8f#
8e
=152
4d#
8e
8d#
4c#
8d#
8c#
=153
2B#
2c#
=154
4d#
[4gg#
8gg#]
8gg#
8aa
8gg#
=155
8ff#
8ff#
8gg#
8ff#
8ee
8ee
8ff#
8ee
=156
8dd#
8dd#
8ee
8dd#
8cc#
8cc#
8dd#
8cc#
=157
2b#
2cc#
=158
2.dd#
4cc#
=159
4b#
4b#
4cc#
4cc#
=160
2.dd#
8e
8cc#
=161
8f#
8b#
8f#
8b#
8e
8cc#
8e
8cc#
=162
8f#
8dd#
8f#
8dd#
8e
8cc#
8e
8cc#
=163
1a
=164
1g#
=165
16r
16GG#
16C#
16E
16G#
16C#
16E
16G#
16c#
16E
16G#
16c#
16e
16G#
16c#
16e
=166
16g#
16c#
16e
16g#
16cc#
16e
16g#
16cc#
16ee
16g#
16cc#
16ee
8gg#
8gg#
=167
16r
16GG#
16BB#
16D#
16G#
16BB#
16D#
16G#
16B#
16D#
16G#
16B#
16d#
16G#
16B#
16d#
=168
16g#
16B#
16d#
16g#
16b#
16d#
16g#
16b#
16dd#
16g#
16b#
16dd#
8gg#
8gg#
=169
16r
16C#
16E
16G#
16c#
16E
16G#
16c#
16e#
16G#
16c#
16e#
16g#
16c#
16e#
16g#
=170
16cc#
16e#
16g#
16cc#
16ee#
16g#
16cc#
16ee#
16gg#
16cc#
16ee#
16gg#
8ccc#
8ccc#
=171
16r
16C#
16F#
16A
16c#
16c#
16f#
16a
16cc#
16cc#
16ff#
16aa
8ccc#
8ccc#
=172
16r
16C#
16E
16F##
16c#
16c#
16e
16f##
16cc#
16cc#
16ee
16ff##
8ccc#
8ccc#
=173
8bb#
16g#
16gg#
16g#
16gg#
16a#
16gg#
16b#
16gg#
16cc#
16gg#
16dd#
16gg#
16b#
16gg#
=174
16dd#
16gg#
16cc#
16gg#
16ff#
16gg#
16ee
16gg#
16dd#
16gg#
16cc#
16gg#
16b#
16gg#
16a
16ff##
=175
16g#
16gg#
16g#
16gg#
16g#
16gg#
16a#
16gg#
16b#
16gg#
16cc#
16gg#
16dd#
16gg#
16b#
16gg#
=176
16dd#
16gg#
16cc#
16gg#
16ff#
16gg#
16ee
16gg#
16dd#
16gg#
16cc#
16gg#
16b#
16gg#
16a
16ff##
=177
16g#
16gg#
16a
16ff##
16g#
16gg#
16a
16ff##
16g#
16gg#
16a
16ff##
16g#
16gg#
16a
16ff##
=178
4gg#
2.G#
=179
4r
2g#
8.e
16c#
=180
4c#
[4B#
8B#]
8B#
8.g#
16B#
=181
4d#
[4c#
8c#]
8c#
8.g#
16c#
=182
4e
[4d#
8d#]
8d#
8.g#
16d#
=183
8e
4gg#
4gg#
8gg#
8ee
8cc#
=184
8cc#
4b#
4b#
8b#
8gg#
8b#
=185
8dd#
4cc#
4cc#
8cc#
8gg#
8cc#
=186
8ee
4dd#
4dd#
8dd#
8gg#
8dd#
=187
2ee#
2ff#
=188
4dd#
2.ee
=189
2cc#
2dd
=190
4b#
2.cc#
=191
2dd[
16dd]
16a
16b
16cc#
16dd
16ee
16ff#
16ee
=192
16dd
16a
16b
16cc#
16dd
16ee
16ff#
16ee
16dd
16a
16b
16cc#
16dd
16ee
16ff#
16ee
=193
16dd
16a
16b
16cc#
16dd
16ee
16ff#
16gg
16aa
16gg#
16bb
16aa
16gg
16ff#
16ee
16dd
=194
2cc#
2dd#
=195
4cc#
4d[
16d]
16A
16B
16c#
16d
16e
16f#
16e
=196
16d
16A
16B
16c#
16d
16e
16f#
16e
16d
16A
16B
16c#
16d
16e
16f#
16e
=197
16d
16A
16B
16c#
16d
16e
16f#
16g
16a
16b
16cc#
16dd
16ee
16ff#
16gg
16gg#
=198
2aa
2cc#
=199
2ee
2B#
=200
8c#
8e
8e
8e
8e
8e
8d#
8c#
=201
8B#
8g#
8g#
8g#
8g#
8g#
8g#
8g#
=202
8g#
8e
8e
8e
8e
8e
8d#
8c#
=203
8B#
8g#
8g#
8g#
8g#
8g#
8g#
8g#
=204
8g#
8g#
8g#
8e
8r
8a
8a
8f#
=205
8r
8g#
8g#
8e
8r
8g#
8g#
8d#
=206
8g#
8ee
8ee
8ee
8ee
8ee
8dd#
8cc#
=207
8b#
8bb#
8bb#
8bb#
8bb#
8bb#
8ccc#
8ddd#
=208
8eee
8ee
8ee
8ee
8ee
8ee
8dd#
8cc#
=209
8b#
8bb#
8bb#
8bb#
8bb#
8bb#
8ccc#
8ddd#
=210
8eee
8ccc#
8ccc#
8gg#
8r
8ccc#
8ccc#
8aa
=211
8r
8gg#
8gg#
8ee
8r
8gg#
8gg#
8dd#
=212
8r
8gg#
8gg#
8ee
8r
8ff#
8ff#
8dd
=213
8r
8ee
8ee
8cc#
8r
8dd#
8dd#
8b#
=214
4cc#
4r
4r
8.e
16c#
=215
4B#
4g#
4g#
4g#
=216
2.g#
8.ee
16cc#
=217
4b#
4gg#
4gg#
4gg#
=218
2gg#
2gg#
=219
2gg#
2gg#
=220
16E
16c#
16G#
16c#
16E
16c#
16G#
16c#
16E
16c#
16G#
16c#
16E
16c#
16G#
16c#
=221
16E#
16c#
16G#
16c#
16E#
16c#
16G#
16c#
16E#
16c#
16G#
16c#
16E#
16c#
16G#
16c#
=222
16c#
16C#
16F#
16A
16c#
16F#
16A
16c#
16f#
16G#
16c#
16f#
16a
16c#
16f#
16a
=223
16cc#
16f#
16a
16cc#
16ff#
16a
16cc#
16ff#
16aa
16cc#
16ff#
16aa
8ccc#
8ccc#
=224
16r
16C#
16E
16G#
16c#
16E
16G#
16c#
16e
16G#
16c#
16e
16g#
16c#
16e
16g#
=225
16cc#
16e
16g#
16cc#
16ee
16g#
16cc#
16ee
16gg#
16cc#
16ee
16gg#
8ccc#
8ccc#
=226
4r
4r
8r
32c#
32e
32f##
32a#
[4cc#
=227
8cc#]
32cc#
32ee
32ff##
32aa#
2.ccc#
=228
4r
4r
8r
32A
32B#
32d#
32f#
[4a
=229
16a]
16a
16b#
16dd#
2.aa
=230
16r
16g#
16e
16g#
16c#
16g#
16e
16g#
16c#
16g#
16e
16g#
16c#
16g#
16e
16g#
=231
16d#
16g#
16f#
16g#
16d#
16g#
16f#
16g#
16d#
16g#
16f#
16g#
16d#
16g#
16f#
16g#
=232
16c#
16g#
16e
16g#
16c#
16g#
16e
16g#
16c#
16g#
16e
16g#
16c#
16g#
16e
16g#
=233
16B#
16g#
16f#
16g#
16B#
16g#
16f#
16g#
16B#
16g#
16f#
16g#
16B#
16g#
16f#
16g#
=234
4g#
2gg#
8.ee
16cc#
=235
4cc#
[4b#
8b#]
8b#
8.gg#
16b#
=236
4dd#
[4cc#
8cc#]
8cc#
8.gg#
16cc#
=237
4ee
[4dd#
8dd#]
8dd#
8.gg#
16dd#
=238
8ff#
8ee
8ccc#
8ee
8ff#
8ee#
8ccc#
8ee#
=239
8gg#
8ff#
8ccc#
8ff#
8aa
8gg#
8ccc#
8gg#
=240
12aa
12ff#
12cc#
12a
12f#
12c#
12a
12f#
12c#
12A
12F#
12C#
=241
16A
16F#
16C#
16AA
16C#
16F#
16A
16c#
16f#
16a
16cc#
16ff#
16aa
16ff#
16cc#
16a
=242
12aa
12ff#
12dd
12a
12f#
12d
12a
12f#
12d
12A
12F#
12D
=243
16A
16F#
16D
16AA
16D
16F#
16A
16d
16f#
16a
16dd
16ff#
16aa
16ff#
16dd
16a
=244
12ccc#
12aa#
12ff##
12ee
12cc#
12a#
12ee
12cc#
12a#
16f##
16e
16c#
16A#
=245
16e
16c#
16A#
16F##
16E
16C#
16E
16F##
24A#
24c#
24e
24f##
24a#
24cc#
24ee
24ff##
24aa
24ccc#
24aa
24ee
=246
12eee
12ccc#
12gg#
12ee
12cc#
12g#
12ee
12cc#
12g#
16e
16cc#
16g#
16e
=247
16c#
16g#
16e
16c#
16G#
16e
16c#
16G#
16E
16c#
16G#
16E
16C#
16G#
16E
16C#
=248
16GG#
16AA
16AA#
16BB
16BB#
16C#
16C##
16D#
16E
16E#
16F#
16F##
16G#
16A
16A#
16B
=249
16B#
16c#
16c##
16d#
20e
20e#
20f#
20f##
20g#
20a
20a#
20b
20b#
20cc#
24dd
24dd#
24ee
32ee#
32ff#
32ff##
32gg#
=250
1aa
=251
1r
=252
1r
=253
4C#
4r
4r
8.e
16c#
=254
4B#
4g#
4g#
4g#
=255
2.g#
8.ee
16cc#
=256
4b#
4gg#
4gg#
4gg#
=257
2gg#
2gg#
=258
2gg#
2gg#
=259
16gg#
16e
16g#
16cc#
16ee
16g#
16cc#
16ee
16gg#
16cc#
16ee
16gg#
16ccc#
16ee
16gg#
16ccc#
=260
16eee
16ccc#
16gg#
16ee
16ccc#
16gg#
16ee
16cc#
16gg#
16ee
16cc#
16g#
16ee
16cc#
16g#
16e
=261
16cc#
16g#
16e
16c#
16g#
16e
16c#
16G#
16e
16c#
16G#
16E
16c#
16G#
16E
16G#
=262
4C#
4r
4ccc#
4r
=263
4cc#
4r
2r
==
*-
